X:220
T: NUR NOCH EINMAL IN MEINEM GANZEN LEBEN
N: B0263
O: Europa, Mitteleuropa, Deutschland, Rheinland, Allenbach
R: Stimmungs - Lied, Sehnsucht, Trauer (um die Eltern)
M: 4/4
L: 1/16
K: D
D2F2 | A4A2A2A2A2B2A2 | F4F4z4
E2F2 | G4G4F2F2A2F2 | E8z4
D2F2 | A4A4A2A2B2A2 | F4F4z2
d2d2d2 | c6c2B4B3C | A8z4
A2G2 | F6F2F2F2B2A2 | A4G4z4
G2F2 | E4A4A2G2B2A2 | F8z4
D2D2 | D4D4D2d2d2c2 | c2B2B4z4
B4 | G2F2E2B2A2A2G2A2 | F4G4A4
B4 | G2F2E2B2B2A2G2A2 | F8z4

